remix/Logos/steam-fill.svg

<svg viewBox="0 0 24 24" fill="currentColor" xmlns="http://www.w3.org/2000/svg"><path d="M12.0052 2C6.75435 2 2.44852 6.05 2.04102 11.1975L7.40102 13.4125C7.85518 13.1033 8.40352 12.9208 8.99435 12.9208C9.04685 12.9208 9.09852 12.9242 9.15102 12.9258L11.5352 9.47417V9.425C11.5352 7.34583 13.2252 5.655 15.3052 5.655C17.3835 5.655 19.0752 7.3475 19.0752 9.4275C19.0752 11.5075 17.3835 13.1983 15.3052 13.1983H15.2177L11.821 15.6242C11.821 15.6675 11.8243 15.7117 11.8243 15.7567C11.8243 17.3192 10.5618 18.5867 8.99935 18.5867C7.63685 18.5867 6.48602 17.6092 6.22352 16.3142L2.38602 14.725C3.57435 18.9225 7.42768 22 12.0052 22C17.5277 22 22.0043 17.5225 22.0043 12C22.0043 6.4775 17.5268 2 12.0052 2ZM7.07852 16.6667C7.29685 17.1192 7.67352 17.4992 8.17352 17.7083C9.25435 18.1575 10.501 17.645 10.9502 16.5625C11.1693 16.0375 11.1702 15.4633 10.9543 14.9383C10.7385 14.4133 10.3293 14.0042 9.80685 13.7858C9.28685 13.5692 8.73185 13.5783 8.24185 13.7608L9.51102 14.2858C10.3077 14.6192 10.6852 15.5358 10.3518 16.3317C10.021 17.1292 9.10435 17.5067 8.30685 17.175L7.07852 16.6667ZM17.8185 9.4225C17.8185 8.0375 16.691 6.91 15.306 6.91C13.9185 6.91 12.7935 8.0375 12.7935 9.4225C12.7935 10.81 13.9185 11.935 15.306 11.935C16.6918 11.935 17.8185 10.81 17.8185 9.4225ZM15.3118 7.53C16.3527 7.53 17.2002 8.375 17.2002 9.41833C17.2002 10.4608 16.3527 11.3058 15.3118 11.3058C14.2677 11.3058 13.4243 10.4608 13.4243 9.41833C13.4243 8.375 14.2685 7.53 15.3118 7.53Z"/></svg>

<svg viewBox="0 0 24 24" xmlns="http://www.w3.org/2000/svg"><path fill="none" d="M0 0h24v24H0Z"/><path d="M12.004 2c-5.25 0-9.56 4.05-9.964 9.197l5.36 2.21c.45-.31 1-.5 1.593-.5 .05 0 .1 0 .15 0l2.38-3.452v-.05c0-2.08 1.69-3.77 3.77-3.77 2.07 0 3.77 1.69 3.77 3.77s-1.7 3.77-3.77 3.77h-.09L11.8 15.6c0 .04 0 .08 0 .13 0 1.56-1.27 2.83-2.83 2.83 -1.362 0-2.513-.98-2.78-2.28l-3.84-1.59c1.18 4.19 5.042 7.275 9.62 7.275 5.522 0 9.998-4.477 9.998-10 0-5.53-4.477-10-9.999-10Zm-4.93 14.66c.21.45.59.83 1.09 1.04 1.08.45 2.32-.07 2.77-1.15 .22-.53.22-1.1 0-1.625 -.22-.53-.625-.94-1.15-1.16 -.52-.22-1.08-.21-1.57-.03l1.26.52c.79.33 1.17 1.25.84 2.04 -.33.79-1.25 1.17-2.05.843l-1.23-.51Zm10.74-7.25c0-1.39-1.13-2.52-2.513-2.52 -1.39 0-2.52 1.12-2.52 2.51 0 1.388 1.125 2.513 2.51 2.513 1.38 0 2.51-1.125 2.51-2.513Zm-2.51-1.9c1.04 0 1.888.84 1.888 1.88s-.85 1.888-1.888 1.888c-1.05 0-1.888-.85-1.888-1.888 0-1.05.84-1.888 1.888-1.888Z"/></svg>
